X: 3
T: Vladimir's Steamboat in D (R-163; \251Jay Ungar)
M: C|
L: 1/8
R: reel
K:DMIX %Transposed from AMIX
|:"D"DFGA GFDF|GAGF DCA,D- |DFGA GF D2|"C/A"CB,CE DC A,2|
"D"DFGA GFDF|GAcd cAGc|AGFA "C"GF D2|"C/A"CB,CE "D"D4:|
| "D"dz dz dz dz|d2cd edcB|ABAG FGAB|"C"cAd^c "A"A4|
"D"dz dz dz d2-|d2cd edcB|ABAG "C"FGAB|"A"AFGF "D"D4|
| "D"dd- dd d2d2-|d2cd edcB|ABAG FGAB|"C"cAd^c "A"A4|
"D"dedc "C"Acde|"D"dAcd edcB|ABAG FGAB|"A"AFGF "D"D4|

